build/img/sprite.svg

<svg xmlns="http://www.w3.org/2000/svg" xmlns:xlink="http://www.w3.org/1999/xlink" xmlns:cc="http://creativecommons.org/ns#" xmlns:dc="http://purl.org/dc/elements/1.1/" xmlns:inkscape="http://www.inkscape.org/namespaces/inkscape" xmlns:rdf="http://www.w3.org/1999/02/22-rdf-syntax-ns#" xmlns:sodipodi="http://sodipodi.sourceforge.net/DTD/sodipodi-0.dtd" xmlns:svg="http://www.w3.org/2000/svg"><symbol id="icn-arrow" viewBox="0 0 24 24">
<path d="M19 9L12 16L5 9" stroke="currentColor" stroke-width="2" stroke-linecap="round" stroke-linejoin="round"/>
</symbol><symbol id="icn-close"><g id="layer1" transform="translate(0,-1036.3622)"><path d="m 2,1050.3622 12,-12" id="path2985" style="fill:none;stroke:#000000;stroke-width:2;stroke-linecap:butt;stroke-linejoin:miter;stroke-miterlimit:4;stroke-opacity:1;stroke-dasharray:none"/><path d="m 2,1038.3622 12,12" id="path2985-1" style="fill:none;stroke:#000000;stroke-width:2;stroke-linecap:butt;stroke-linejoin:miter;stroke-miterlimit:4;stroke-opacity:1;stroke-dasharray:none"/></g></symbol><symbol id="icn-fb" viewBox="0 0 24 24">
<path d="M2.00201 12.002C2.00318 16.9214 5.58042 21.1101 10.439 21.881V14.892H7.90201V12.002H10.442V9.80204C10.3285 8.75958 10.6845 7.72064 11.4137 6.96698C12.1428 6.21332 13.1694 5.82306 14.215 5.90204C14.9656 5.91417 15.7142 5.98101 16.455 6.10205V8.56104H15.191C14.7559 8.50405 14.3184 8.64777 14.0018 8.95171C13.6852 9.25566 13.5238 9.68693 13.563 10.124V12.002H16.334L15.891 14.893H13.563V21.881C18.8175 21.0506 22.5021 16.2518 21.9475 10.9611C21.3929 5.67041 16.7933 1.73997 11.4808 2.01722C6.16838 2.29447 2.00286 6.68235 2.00201 12.002Z" fill="currentColor"/>
</symbol><symbol id="icn-git" viewBox="0 0 20 20">
<path fill-rule="evenodd" clip-rule="evenodd" d="M9.96942 0.239998C4.46483 0.239998 0 4.70483 0 10.2094C0 14.6131 2.87462 18.344 6.78899 19.6895C7.27829 19.7507 7.46177 19.4449 7.46177 19.2002C7.46177 18.9556 7.46177 18.344 7.46177 17.4877C4.70948 18.0993 4.09786 16.1421 4.09786 16.1421C3.66972 14.9801 2.99694 14.6742 2.99694 14.6742C2.07951 14.0626 3.0581 14.0626 3.0581 14.0626C4.0367 14.1238 4.58716 15.1024 4.58716 15.1024C5.50459 16.6314 6.91131 16.2033 7.46177 15.9587C7.52294 15.2859 7.82875 14.8577 8.07339 14.6131C5.87156 14.3684 3.5474 13.5122 3.5474 9.65896C3.5474 8.55804 3.91437 7.70177 4.58716 6.96783C4.52599 6.78434 4.15902 5.74459 4.70948 4.39902C4.70948 4.39902 5.56575 4.15437 7.46177 5.43878C8.25688 5.19413 9.11315 5.13296 9.96942 5.13296C10.8257 5.13296 11.682 5.25529 12.4771 5.43878C14.3731 4.15437 15.2294 4.39902 15.2294 4.39902C15.7798 5.74459 15.4128 6.78434 15.3517 7.02899C15.9633 7.70177 16.3914 8.6192 16.3914 9.72012C16.3914 13.5733 14.0673 14.3684 11.8654 14.6131C12.2324 14.9189 12.5382 15.5305 12.5382 16.448C12.5382 17.7935 12.5382 18.8333 12.5382 19.2002C12.5382 19.4449 12.7217 19.7507 13.211 19.6895C17.1865 18.344 20 14.6131 20 10.2094C19.9388 4.70483 15.474 0.239998 9.96942 0.239998Z" fill="currentColor"/>
</symbol><symbol id="icn-in" viewBox="0 0 15 15">
<path d="M15 8.7444V14.2601H11.7713V9.08072C11.7713 7.80269 11.3004 6.92825 10.157 6.92825C9.28251 6.92825 8.74439 7.53363 8.5426 8.07175C8.47534 8.27354 8.40807 8.5426 8.40807 8.87892V14.2601H5.17937C5.17937 14.2601 5.24664 5.5157 5.17937 4.64126H8.40807V5.98655C8.81166 5.3139 9.61883 4.3722 11.3004 4.3722C13.3856 4.3722 15 5.78475 15 8.7444ZM1.81614 0C0.739908 0 0 0.73991 0 1.68161C0 2.62332 0.672645 3.36323 1.74888 3.36323C2.89238 3.36323 3.56502 2.62332 3.56502 1.68161C3.63229 0.672646 2.95964 0 1.81614 0ZM0.201793 14.2601H3.43049V4.64126H0.201793V14.2601Z" fill="currentColor"/>
</symbol><symbol id="icn-inst" viewBox="0 0 24 24">
<path d="M12.002 21.041C9.54201 21.041 9.25201 21.028 8.29201 20.986C7.54339 20.9614 6.80445 20.8092 6.10701 20.536C4.90033 20.0664 3.94615 19.1119 3.47701 17.905C3.21432 17.205 3.07263 16.4655 3.05801 15.718C3.00201 14.76 3.00201 14.446 3.00201 12.005C3.00201 9.538 3.01501 9.25 3.05801 8.295C3.07295 7.54853 3.21464 6.81001 3.47701 6.111C3.94565 4.90253 4.90137 3.94718 6.11001 3.479C6.80866 3.21521 7.54736 3.07315 8.29401 3.059C9.24901 3.005 9.56301 3.005 12.002 3.005C14.482 3.005 14.767 3.018 15.712 3.059C16.4606 3.07327 17.2013 3.21531 17.902 3.479C19.1103 3.94771 20.0659 4.90288 20.535 6.111C20.8021 6.8202 20.9446 7.57026 20.956 8.328C21.012 9.28601 21.012 9.59901 21.012 12.039C21.012 14.479 20.998 14.799 20.956 15.746C20.9411 16.4942 20.7991 17.2344 20.536 17.935C20.0657 19.1427 19.1101 20.0976 17.902 20.567C17.2023 20.8292 16.4631 20.9709 15.716 20.986C14.761 21.041 14.448 21.041 12.002 21.041ZM11.968 4.588C9.52201 4.588 9.26801 4.6 8.31301 4.643C7.743 4.65056 7.17849 4.75575 6.64401 4.954C5.85477 5.25601 5.23024 5.878 4.92501 6.666C4.72523 7.2063 4.62002 7.77698 4.61401 8.353C4.56101 9.322 4.56101 9.576 4.56101 12.005C4.56101 14.405 4.57001 14.696 4.61401 15.659C4.62297 16.2292 4.72811 16.7938 4.92501 17.329C5.23069 18.1165 5.85511 18.738 6.64401 19.04C7.17813 19.2396 7.74287 19.3448 8.31301 19.351C9.28101 19.407 9.53601 19.407 11.968 19.407C14.421 19.407 14.675 19.395 15.622 19.351C16.1924 19.3441 16.7574 19.2389 17.292 19.04C18.0765 18.7354 18.6969 18.1153 19.002 17.331C19.2014 16.7903 19.3066 16.2193 19.313 15.643H19.324C19.367 14.687 19.367 14.432 19.367 11.989C19.367 9.54601 19.356 9.289 19.313 8.334C19.304 7.76446 19.1989 7.20052 19.002 6.666C18.6976 5.88058 18.0771 5.2593 17.292 4.954C16.7575 4.75475 16.1925 4.64953 15.622 4.643C14.655 4.588 14.402 4.588 11.968 4.588ZM12.002 16.624C10.132 16.6252 8.44543 15.4997 7.72888 13.7725C7.01232 12.0452 7.40692 10.0563 8.72865 8.73347C10.0504 7.4106 12.0389 7.01428 13.7668 7.72934C15.4947 8.4444 16.6216 10.13 16.622 12C16.6193 14.5511 14.5531 16.619 12.002 16.624ZM12.002 8.998C10.3452 8.998 9.00201 10.3412 9.00201 11.998C9.00201 13.6549 10.3452 14.998 12.002 14.998C13.6589 14.998 15.002 13.6549 15.002 11.998C14.9982 10.3427 13.6573 9.00185 12.002 8.998ZM16.802 8.28501C16.2074 8.2828 15.7269 7.79959 15.728 7.20501C15.7291 6.61043 16.2114 6.12901 16.806 6.12901C17.4006 6.12901 17.8829 6.61042 17.884 7.205C17.8843 7.49187 17.7703 7.76703 17.5673 7.96968C17.3642 8.17234 17.0889 8.2858 16.802 8.28501Z" fill="currentColor"/>
</symbol><symbol id="icn-lock" viewBox="0 0 12 16">
<path d="M10.2094 5.72803H9.48022V4.26953C9.48022 2.25681 7.84671 0.623291 5.83398 0.623291C3.82126 0.623291 2.18775 2.25681 2.18775 4.26953V5.72803H1.4585C0.656323 5.72803 0 6.38435 0 7.18652V14.479C0 15.2812 0.656323 15.9375 1.4585 15.9375H10.2094C11.0116 15.9375 11.6679 15.2812 11.6679 14.479V7.18652C11.6679 6.38435 11.0116 5.72803 10.2094 5.72803ZM5.83398 12.2913C5.03181 12.2913 4.37549 11.6349 4.37549 10.8328C4.37549 10.0306 5.03181 9.37426 5.83398 9.37426C6.63616 9.37426 7.29248 10.0306 7.29248 10.8328C7.29248 11.6349 6.63616 12.2913 5.83398 12.2913ZM3.64624 5.72803V4.26953C3.64624 3.05898 4.62343 2.08179 5.83398 2.08179C7.04454 2.08179 8.02173 3.05898 8.02173 4.26953V5.72803H3.64624Z" fill="currentColor"/>
</symbol><symbol id="icn-mail" viewBox="0 0 24 24">
<path d="M20 5H4C3.44772 5 3 5.44772 3 6V18C3 18.5523 3.44772 19 4 19H20C20.5523 19 21 18.5523 21 18V6C21 5.44772 20.5523 5 20 5Z" stroke="currentColor" stroke-width="2" stroke-linecap="round" stroke-linejoin="round"/>
<path d="M3 6L12.2571 13L21 6" stroke="currentColor" stroke-width="2" stroke-linecap="round" stroke-linejoin="round"/>
</symbol><symbol id="icn-map" viewBox="0 0 24 24">
<path d="M12 11C13.1046 11 14 10.1046 14 9C14 7.89543 13.1046 7 12 7C10.8954 7 10 7.89543 10 9C10 10.1046 10.8954 11 12 11Z" stroke="currentColor" stroke-width="2" stroke-linecap="round" stroke-linejoin="round"/>
<path d="M12 21C12 21 19 16.1538 19 9.92308C19 8.08696 18.2625 6.32605 16.9497 5.02772C15.637 3.72939 13.8565 3 12 3C10.1435 3 8.36301 3.72939 7.05025 5.02772C5.7375 6.32605 5 8.08696 5 9.92308C5 16.1538 12 21 12 21Z" stroke="currentColor" stroke-width="2" stroke-linecap="round" stroke-linejoin="round"/>
</symbol><symbol id="icn-skype" viewBox="0 0 21 21">
<path d="M20.3182 12.0682C20.3864 11.5227 20.4545 11.0455 20.4545 10.5C20.4545 5.04545 16.0227 0.545455 10.5 0.545455C9.95455 0.545455 9.47727 0.613636 8.93182 0.681818C8.04545 0.204545 7.09091 0 6.13636 0C2.72727 0 0 2.72727 0 6.13636C0 7.09091 0.204545 8.04545 0.681818 8.93182C0.613636 9.47727 0.545455 9.95455 0.545455 10.5C0.545455 15.9545 4.97727 20.4545 10.5 20.4545C11.0455 20.4545 11.5227 20.3864 12.0682 20.3182C12.9545 20.7273 13.9091 21 14.8636 21C18.2727 21 21 18.2727 21 14.8636C21 13.9091 20.7273 12.9545 20.3182 12.0682ZM14.6591 14.1136C14.4545 14.5227 14.1818 14.8636 13.7727 15.1364C13.3636 15.4091 12.9545 15.6136 12.4091 15.75C11.8636 15.8864 11.25 15.9545 10.5682 15.9545C9.13636 15.9545 7.97727 15.6136 7.15909 15C6.68182 14.5909 6.27273 14.1136 6.06818 13.5C5.79545 12.9545 6.27273 12.2727 6.95455 12.2727H7.15909C7.56818 12.2727 7.97727 12.5455 8.11364 12.8864C8.25 13.2273 8.45455 13.5 8.72727 13.7045C9.13636 14.0455 9.75 14.1818 10.5 14.1818C11.1818 14.1818 11.7273 14.0455 12.1364 13.8409C12.5455 13.6364 12.75 13.2273 12.75 12.8182C12.75 12.6136 12.6818 12.4773 12.6136 12.3409C12.5455 12.2045 12.3409 12.0682 12.2045 12C12 11.8636 11.7955 11.7955 11.4545 11.7273C11.1818 11.6591 10.8409 11.5227 10.4318 11.4545L10.0227 11.3182C9.54545 11.1818 9 11.0455 8.59091 10.9091C8.11364 10.7727 7.70455 10.5682 7.36364 10.3636C7.02273 10.1591 6.75 9.88636 6.54545 9.47727C6.34091 9.13636 6.27273 8.65909 6.27273 8.11364C6.27273 7.56818 6.40909 7.09091 6.61364 6.68182C6.81818 6.27273 7.15909 5.93182 7.5 5.72727C7.90909 5.45455 8.31818 5.25 8.86364 5.18182C9.34091 5.04545 9.88636 4.97727 10.5 4.97727C11.1818 4.97727 11.7273 5.04545 12.2727 5.18182C12.8182 5.31818 13.2273 5.52273 13.6364 5.86364C14.0455 6.13636 14.3182 6.47727 14.5227 6.95455C14.8636 7.56818 14.3864 8.38636 13.6364 8.38636H13.4318C13.0227 8.38636 12.6818 8.18182 12.4773 7.84091C12.3409 7.63636 12.2045 7.43182 12 7.22727C11.6591 6.95455 11.1136 6.81818 10.5 6.81818C9.88636 6.81818 9.40909 6.95455 9.06818 7.15909C8.72727 7.36364 8.59091 7.70455 8.59091 8.04545C8.59091 8.25 8.65909 8.38636 8.72727 8.52273C8.79545 8.65909 8.93182 8.79545 9.13636 8.86364C9.34091 8.93182 9.54545 9.06818 9.81818 9.13636C10.0909 9.20455 10.4318 9.27273 10.8409 9.40909C11.25 9.47727 11.5909 9.61364 12 9.68182C12.3409 9.75 12.6818 9.88636 13.0227 9.95455C13.3636 10.0909 13.6364 10.2273 13.9091 10.3636C14.1818 10.5 14.3864 10.7045 14.5909 10.9091C14.7955 11.1136 14.9318 11.3864 15 11.6591C15.1364 11.9318 15.1364 12.3409 15.1364 12.75C15 13.2273 14.8636 13.7045 14.6591 14.1136Z" fill="currentColor"/>
</symbol><symbol id="icn-tel" viewBox="0 0 24 24">
<path d="M7.64593 3H4.89474C3.8483 3 3 3.8483 3 4.89474C3 13.7894 10.2106 21 19.1053 21C20.1517 21 21 20.1517 21 19.1053V16.3541C21 15.5363 20.5021 14.8008 19.7428 14.4971L17.1071 13.4428C16.4251 13.17 15.6483 13.2931 15.084 13.7634L14.4031 14.3307C13.6084 14.993 12.44 14.94 11.7085 14.2085L9.79148 12.2915C9.06004 11.56 9.00704 10.3916 9.66925 9.5969L10.2366 8.91603C10.7069 8.35169 10.83 7.57495 10.5572 6.89288L9.50289 4.25722C9.19916 3.4979 8.46374 3 7.64593 3Z" stroke="currentColor" stroke-width="2" stroke-linecap="round" stroke-linejoin="round"/>
</symbol><symbol id="icn-tg" viewBox="0 0 19 17">
<path d="M19 0.602225L15.9946 16.2923C15.9946 16.2923 15.5741 17.3801 14.4189 16.8584L7.48458 11.3526L7.45242 11.3364C8.38909 10.4654 15.6524 3.70266 15.9698 3.39612C16.4613 2.92136 16.1562 2.63873 15.5856 2.99736L4.85679 10.053L0.717638 8.61077C0.717638 8.61077 0.0662573 8.37083 0.00359284 7.84911C-0.0598962 7.32653 0.739076 7.0439 0.739076 7.0439L17.6131 0.188948C17.6131 0.188948 19 -0.44207 19 0.602225Z" fill="currentColor"/>
</symbol><symbol id="icn-twit" viewBox="0 0 24 24">
  <path d="M19.995 6.68799C20.8914 6.15208 21.5622 5.30823 21.882 4.31399C21.0397 4.81379 20.118 5.16587 19.157 5.35499C17.8246 3.94552 15.7135 3.60251 14.0034 4.51764C12.2933 5.43277 11.4075 7.37948 11.841 9.26999C8.39062 9.09676 5.17598 7.4669 2.99702 4.78599C1.85986 6.74741 2.44097 9.25477 4.32502 10.516C3.64373 10.4941 2.97754 10.3096 2.38202 9.97799C2.38202 9.99599 2.38202 10.014 2.38202 10.032C2.38241 12.0751 3.82239 13.8351 5.82502 14.24C5.19308 14.4119 4.53022 14.4372 3.88702 14.314C4.45022 16.0613 6.06057 17.2583 7.89602 17.294C6.37585 18.4871 4.49849 19.1342 2.56602 19.131C2.22349 19.1315 1.88123 19.1118 1.54102 19.072C3.50341 20.333 5.78738 21.0023 8.12002 21C11.3653 21.0223 14.484 19.7429 16.7787 17.448C19.0734 15.1531 20.3526 12.0342 20.33 8.78899C20.33 8.60299 20.3257 8.41799 20.317 8.23399C21.1575 7.62659 21.8828 6.87414 22.459 6.01199C21.676 6.35905 20.8455 6.58691 19.995 6.68799Z" fill="currentColor"/>
</symbol><symbol id="icn-visible" viewBox="0 0 18 18">
  <path d="M9.16985 3.56812C5.71551 3.56812 2.76551 5.71671 1.57031 8.74961C2.76551 11.7825 5.71551 13.9311 9.16985 13.9311C12.6241 13.9311 15.5742 11.7825 16.7694 8.74961C15.5742 5.71671 12.6241 3.56812 9.16985 3.56812ZM9.16985 12.204C7.26306 12.204 5.71551 10.6564 5.71551 8.74961C5.71551 6.84282 7.26306 5.29528 9.16985 5.29528C11.0766 5.29528 12.6241 6.84282 12.6241 8.74961C12.6241 10.6564 11.0766 12.204 9.16985 12.204ZM9.16985 6.67701C8.02301 6.67701 7.09725 7.60277 7.09725 8.74961C7.09725 9.89646 8.02301 10.8222 9.16985 10.8222C10.3167 10.8222 11.2425 9.89646 11.2425 8.74961C11.2425 7.60277 10.3167 6.67701 9.16985 6.67701Z" fill="currentColor"/>
</symbol><symbol id="icn-wp" viewBox="0 0 21 21">
<path d="M17.9268 3.0625C15.9512 1.09375 13.3171 0 10.5366 0C4.7561 0 0.0731696 4.66667 0.0731696 10.4271C0.0731696 12.25 0.585366 14.0729 1.46341 15.6042L0 21L5.56098 19.5417C7.09756 20.3438 8.78049 20.7812 10.5366 20.7812C16.3171 20.7812 21 16.1146 21 10.3542C20.9268 7.65625 19.9024 5.03125 17.9268 3.0625ZM15.5854 14.1458C15.3659 14.7292 14.3415 15.3125 13.8293 15.3854C13.3902 15.4583 12.8049 15.4583 12.2195 15.3125C11.8537 15.1667 11.3415 15.0208 10.7561 14.7292C8.12195 13.6354 6.43903 11.0104 6.29268 10.7917C6.14634 10.6458 5.19512 9.40625 5.19512 8.09375C5.19512 6.78125 5.85366 6.19792 6.07317 5.90625C6.29268 5.61458 6.58536 5.61458 6.80488 5.61458C6.95122 5.61458 7.17073 5.61458 7.31707 5.61458C7.46341 5.61458 7.68293 5.54167 7.90244 6.05208C8.12195 6.5625 8.63414 7.875 8.70731 7.94792C8.78049 8.09375 8.78049 8.23958 8.70731 8.38542C8.63414 8.53125 8.56097 8.67708 8.41463 8.82292C8.26829 8.96875 8.12195 9.1875 8.04878 9.26042C7.90244 9.40625 7.7561 9.55208 7.90244 9.77083C8.04878 10.0625 8.56097 10.8646 9.36585 11.5937C10.3902 12.4687 11.1951 12.7604 11.4878 12.9063C11.7805 13.0521 11.9268 12.9792 12.0732 12.8333C12.2195 12.6875 12.7317 12.1042 12.878 11.8125C13.0244 11.5208 13.2439 11.5938 13.4634 11.6667C13.6829 11.7396 15 12.3958 15.2195 12.5417C15.5122 12.6875 15.6585 12.7604 15.7317 12.8333C15.8049 13.0521 15.8049 13.5625 15.5854 14.1458Z" fill="currentColor"/>
</symbol></svg>

<svg xmlns="http://www.w3.org/2000/svg" xmlns:xlink="http://www.w3.org/1999/xlink"><symbol id="icn-arrow" viewBox="0 0 24 24"><path d="M19 9l-7 7-7-7" stroke="currentColor" stroke-width="2" stroke-linecap="round" stroke-linejoin="round"/></symbol><symbol id="icn-close"><path d="M2 14L14 2M2 2l12 12" fill="none" stroke="#000" stroke-width="2"/></symbol><symbol id="icn-fb" viewBox="0 0 24 24"><path d="M2.002 12.002a10.005 10.005 0 008.437 9.879v-6.989H7.902v-2.89h2.54v-2.2a3.528 3.528 0 013.773-3.9c.75.012 1.5.079 2.24.2v2.459h-1.264a1.446 1.446 0 00-1.628 1.563v1.878h2.771l-.443 2.891h-2.328v6.988a10 10 0 10-11.561-9.879z" fill="currentColor"/></symbol><symbol id="icn-git" viewBox="0 0 20 20"><path fill-rule="evenodd" clip-rule="evenodd" d="M9.97.24C4.464.24 0 4.705 0 10.21c0 4.403 2.875 8.134 6.789 9.48.49.06.673-.245.673-.49v-1.712c-2.753.611-3.364-1.346-3.364-1.346-.428-1.162-1.101-1.468-1.101-1.468-.917-.611.061-.611.061-.611.979.06 1.53 1.04 1.53 1.04.917 1.528 2.323 1.1 2.874.856a2.13 2.13 0 01.611-1.346c-2.201-.245-4.526-1.1-4.526-4.954 0-1.101.367-1.957 1.04-2.691-.061-.184-.428-1.223.122-2.569 0 0 .857-.245 2.753 1.04.795-.245 1.651-.306 2.507-.306.857 0 1.713.122 2.508.306 1.896-1.285 2.752-1.04 2.752-1.04.55 1.346.184 2.385.123 2.63a3.956 3.956 0 011.04 2.691c0 3.853-2.325 4.648-4.527 4.893.367.306.673.918.673 1.835V19.2c0 .245.184.55.673.49A9.98 9.98 0 0020 10.21C19.939 4.704 15.474.24 9.97.24z" fill="currentColor"/></symbol><symbol id="icn-in" viewBox="0 0 15 15"><path d="M15 8.744v5.516h-3.229V9.08c0-1.277-.47-2.152-1.614-2.152-.874 0-1.413.606-1.614 1.144-.068.202-.135.47-.135.807v5.381H5.18s.068-8.744 0-9.619h3.23v1.346c.403-.673 1.21-1.615 2.891-1.615 2.086 0 3.7 1.413 3.7 4.372zM1.816 0C.74 0 0 .74 0 1.682c0 .941.673 1.681 1.749 1.681 1.143 0 1.816-.74 1.816-1.681C3.632.672 2.96 0 1.816 0zM.202 14.26H3.43V4.641H.202v9.62z" fill="currentColor"/></symbol><symbol id="icn-inst" viewBox="0 0 24 24"><path d="M12.002 21.041c-2.46 0-2.75-.013-3.71-.055a6.584 6.584 0 01-2.185-.45 4.619 4.619 0 01-2.63-2.631 6.591 6.591 0 01-.419-2.187c-.056-.958-.056-1.272-.056-3.713 0-2.467.013-2.755.056-3.71a6.59 6.59 0 01.419-2.184A4.61 4.61 0 016.11 3.479a6.533 6.533 0 012.184-.42c.955-.054 1.269-.054 3.708-.054 2.48 0 2.765.013 3.71.054.749.014 1.49.156 2.19.42a4.615 4.615 0 012.633 2.632c.267.71.41 1.46.421 2.217.056.958.056 1.271.056 3.711s-.014 2.76-.056 3.707a6.6 6.6 0 01-.42 2.189 4.624 4.624 0 01-2.634 2.632 6.61 6.61 0 01-2.186.419c-.955.055-1.268.055-3.714.055zm-.034-16.453c-2.446 0-2.7.012-3.655.055a4.99 4.99 0 00-1.669.311 2.99 2.99 0 00-1.719 1.712c-.2.54-.305 1.111-.311 1.687-.053.969-.053 1.223-.053 3.652 0 2.4.009 2.691.053 3.654.009.57.114 1.135.311 1.67.306.787.93 1.409 1.719 1.711a4.92 4.92 0 001.669.311c.968.056 1.223.056 3.655.056 2.453 0 2.707-.012 3.654-.056a4.961 4.961 0 001.67-.311 3 3 0 001.71-1.709c.2-.54.305-1.112.311-1.688h.011c.043-.956.043-1.211.043-3.654 0-2.443-.011-2.7-.054-3.655a5.057 5.057 0 00-.311-1.668 3 3 0 00-1.71-1.712 4.94 4.94 0 00-1.67-.311c-.967-.055-1.22-.055-3.654-.055zm.034 12.036A4.623 4.623 0 1116.622 12a4.629 4.629 0 01-4.62 4.624zm0-7.626a3 3 0 103 3 3.007 3.007 0 00-3-3zm4.8-.713a1.078 1.078 0 11.008-2.156 1.078 1.078 0 01-.008 2.156z" fill="currentColor"/></symbol><symbol id="icn-lock" viewBox="0 0 12 16"><path d="M10.21 5.728h-.73V4.27A3.648 3.648 0 005.834.623 3.648 3.648 0 002.188 4.27v1.458h-.73C.656 5.728 0 6.384 0 7.187v7.292c0 .802.656 1.459 1.458 1.459h8.751c.803 0 1.459-.657 1.459-1.459V7.187c0-.803-.656-1.459-1.459-1.459zm-4.376 6.563a1.463 1.463 0 01-1.459-1.458c0-.802.657-1.459 1.459-1.459s1.458.657 1.458 1.459-.656 1.458-1.458 1.458zM3.646 5.728V4.27c0-1.211.977-2.188 2.188-2.188 1.21 0 2.188.977 2.188 2.188v1.458H3.646z" fill="currentColor"/></symbol><symbol id="icn-mail" viewBox="0 0 24 24"><path d="M20 5H4a1 1 0 00-1 1v12a1 1 0 001 1h16a1 1 0 001-1V6a1 1 0 00-1-1z" stroke="currentColor" stroke-width="2" stroke-linecap="round" stroke-linejoin="round"/><path d="M3 6l9.257 7L21 6" stroke="currentColor" stroke-width="2" stroke-linecap="round" stroke-linejoin="round"/></symbol><symbol id="icn-map" viewBox="0 0 24 24"><path d="M12 11a2 2 0 100-4 2 2 0 000 4z" stroke="currentColor" stroke-width="2" stroke-linecap="round" stroke-linejoin="round"/><path d="M12 21s7-4.846 7-11.077a6.885 6.885 0 00-2.05-4.895A7.04 7.04 0 0012 3a7.04 7.04 0 00-4.95 2.028A6.885 6.885 0 005 9.923C5 16.153 12 21 12 21z" stroke="currentColor" stroke-width="2" stroke-linecap="round" stroke-linejoin="round"/></symbol><symbol id="icn-skype" viewBox="0 0 21 21"><path d="M20.318 12.068c.068-.545.136-1.022.136-1.568 0-5.455-4.431-9.955-9.954-9.955-.545 0-1.023.069-1.568.137A5.84 5.84 0 006.136 0 6.11 6.11 0 000 6.136c0 .955.205 1.91.682 2.796C.614 9.477.545 9.955.545 10.5c0 5.454 4.432 9.954 9.955 9.954.546 0 1.023-.068 1.568-.136.886.41 1.841.682 2.796.682A6.11 6.11 0 0021 14.864c0-.955-.273-1.91-.682-2.796zm-5.659 2.046a2.55 2.55 0 01-.886 1.022c-.41.273-.819.478-1.364.614a7.603 7.603 0 01-1.84.204c-1.433 0-2.592-.34-3.41-.954-.477-.41-.886-.886-1.09-1.5-.274-.546.204-1.227.886-1.227h.204c.41 0 .818.273.955.613.136.341.34.614.613.819.41.34 1.023.477 1.773.477.682 0 1.227-.136 1.636-.341.41-.205.614-.614.614-1.023 0-.204-.068-.34-.136-.477-.069-.136-.273-.273-.41-.341-.204-.136-.409-.204-.75-.273-.272-.068-.613-.204-1.022-.273l-.41-.136c-.477-.136-1.022-.272-1.431-.409a5.115 5.115 0 01-1.227-.545 2.072 2.072 0 01-.819-.887c-.204-.34-.272-.818-.272-1.363 0-.546.136-1.023.34-1.432.205-.41.546-.75.887-.955.41-.272.818-.477 1.364-.545a5.966 5.966 0 011.636-.205 7.01 7.01 0 011.773.205c.545.136.954.34 1.363.682.41.272.682.613.887 1.09.34.614-.137 1.432-.887 1.432h-.204c-.41 0-.75-.204-.955-.545A3.752 3.752 0 0012 7.227c-.34-.272-.886-.409-1.5-.409s-1.09.137-1.432.341c-.34.205-.477.546-.477.886 0 .205.068.341.136.478a.698.698 0 00.41.34c.204.069.408.205.681.273.273.069.614.137 1.023.273.409.068.75.205 1.159.273.34.068.682.204 1.023.273.34.136.613.272.886.409.273.136.477.34.682.545.205.205.34.477.409.75.136.273.136.682.136 1.091-.136.477-.272.954-.477 1.364z" fill="currentColor"/></symbol><symbol id="icn-tel" viewBox="0 0 24 24"><path d="M7.646 3H4.895A1.895 1.895 0 003 4.895C3 13.789 10.21 21 19.105 21A1.895 1.895 0 0021 19.105v-2.75a2 2 0 00-1.257-1.858l-2.636-1.054a2 2 0 00-2.023.32l-.68.568a2 2 0 01-2.695-.122L9.79 12.29a2 2 0 01-.122-2.694l.568-.681a2 2 0 00.32-2.023L9.503 4.257A2 2 0 007.646 3z" stroke="currentColor" stroke-width="2" stroke-linecap="round" stroke-linejoin="round"/></symbol><symbol id="icn-tg" viewBox="0 0 19 17"><path d="M19 .602l-3.005 15.69s-.42 1.088-1.576.566l-6.934-5.505-.033-.017c.937-.87 8.2-7.633 8.518-7.94.491-.475.186-.757-.384-.399l-10.73 7.056L.719 8.611s-.652-.24-.714-.762c-.064-.522.735-.805.735-.805L17.613.189S19-.442 19 .602z" fill="currentColor"/></symbol><symbol id="icn-twit" viewBox="0 0 24 24"><path d="M19.995 6.688a4.3 4.3 0 001.887-2.374 8.59 8.59 0 01-2.725 1.041 4.3 4.3 0 00-7.316 3.915 12.184 12.184 0 01-8.844-4.484 4.3 4.3 0 001.328 5.73 4.276 4.276 0 01-1.943-.538v.054a4.294 4.294 0 003.443 4.208 4.3 4.3 0 01-1.938.074 4.3 4.3 0 004.009 2.98 8.61 8.61 0 01-5.33 1.837c-.343 0-.685-.02-1.025-.059A12.148 12.148 0 008.12 21 12.127 12.127 0 0020.33 8.789c0-.186-.004-.371-.013-.555a8.718 8.718 0 002.142-2.222 8.58 8.58 0 01-2.464.676z" fill="currentColor"/></symbol><symbol id="icn-visible" viewBox="0 0 18 18"><path d="M9.17 3.568c-3.454 0-6.404 2.149-7.6 5.182 1.196 3.033 4.146 5.181 7.6 5.181 3.454 0 6.404-2.148 7.6-5.181-1.196-3.033-4.146-5.182-7.6-5.182zm0 8.636a3.456 3.456 0 010-6.909 3.456 3.456 0 010 6.909zm0-5.527A2.07 2.07 0 007.097 8.75a2.07 2.07 0 002.073 2.072 2.07 2.07 0 002.072-2.072A2.07 2.07 0 009.17 6.677z" fill="currentColor"/></symbol><symbol id="icn-wp" viewBox="0 0 21 21"><path d="M17.927 3.063A10.428 10.428 0 0010.537 0C4.757 0 .073 4.667.073 10.427c0 1.823.512 3.646 1.39 5.177L0 21l5.561-1.458c1.537.802 3.22 1.24 4.976 1.24 5.78 0 10.463-4.667 10.463-10.428-.073-2.698-1.098-5.323-3.073-7.291zm-2.342 11.083c-.22.583-1.244 1.166-1.756 1.24a4.104 4.104 0 01-1.61-.073c-.365-.146-.877-.292-1.463-.584-2.634-1.094-4.317-3.719-4.463-3.937-.147-.146-1.098-1.386-1.098-2.698 0-1.313.659-1.896.878-2.188.22-.291.512-.291.732-.291h.512c.146 0 .366-.073.585.437.22.51.732 1.823.805 1.896a.463.463 0 010 .437 1.525 1.525 0 01-.292.438c-.147.146-.293.364-.366.437-.147.146-.293.292-.147.51.147.293.659 1.095 1.464 1.824 1.024.875 1.83 1.166 2.122 1.312.293.146.439.073.585-.073.146-.146.659-.729.805-1.02.146-.292.366-.22.585-.146.22.073 1.537.729 1.757.875.292.146.438.218.512.291.073.22.073.73-.147 1.313z" fill="currentColor"/></symbol></svg>
